!!!!SEGMENT: pl-sa--l-1636--116_anonim--credo.krn
!!!cenid: 17xx:823
!!!COM: Anonim
!!!COM-rismID: pe30004985
!!!CDT:
!!!CNT:
!!!OTL: Credo
!!!PDT:
!!!AGN: Sacred; Mass section
!!!SMS-siglum: PL-SA
!!!SMS-shelfmark: L 1636
!!!SMS-shelfwork: 116 W
!!!SMS-variant:
!!!SMS-altvar:
!!!NIFC-rismSourceID: 1001100399
!!!NIFC-rismChildID: 1001100399
!!!NIFC-islandoraID:
!!!URL-pdf-islandora:
!!!URL-scan:
!!!ONB-nifc: 64v-67v, skan 0052 (s. 4)-00
!!!AIN: 1 organ
!!!key:
**kern	**kern	**text
*part1	*part1	*part1
*staff2	*staff1	*staff1
*Iorgan	*Ivox	*
*I"Organo	*I"Canto	*
*I'Org.	*I'C.	*
*clefF4	*clefC1	*
*k[]	*k[]	*
*d:	*d:	*
*M2/2	*M2/2	*
*met(c|)	*met(c|)	*
=1	=1	=1
*	*2\right	*
!	!LO:TX:a:t=P:problem=wszystkie nuty mają caudy z prawej strony	!
1ryy	2d/	Pa-
.	2a\	-trem
1ryy	2g/	o-
.	4a\	-mni
.	4cc\	po-
1ryy	1b	-ten-
1ryy	1a	-tem
=2	=2	=2
1ryy	2cc\	fac-
.	2a\	-to-
1ryy	2g\	-rem
.	2a\	coe-
1ryy	4g/	-li
.	4f/	et
.	2e/	ter-
1ryy	1d	-re
!!LO:PB:g=original
=3	=3	=3
1ryy	2g\	vi-
.	2a\	-si-
1ryy	4e/	-bi-
.	4f/	-li-
.	2g/	-um
1ryy	4f/	om-
.	4g/	-ni-
.	2a\	-(um)
=4	=4	=4
1ryy	2cc\	et
.	2a\	in-
1ryy	4g/	-vi-
.	4f/	-si-
.	4e/	-bi-
.	4e/	-li-
1ryy	1d	-um
=5	=5	=5
1ryy	2d/	Et
.	2a\	in
1ryy	2g#X/	U-
.	4a\	-num
.	4cc\	D(o-
1ryy	4.b\	.
.	8b\	-mi-
.	2a\	-nu)m
!!LO:LB:g=original
=6	=6	=6
1ryy	2e/	Je-
.	2f/	-sum
1ryy	2g\	Chri-
.	2a\	-stum
1ryy	2cc\	Fi-
.	4cc\	-li-
.	4cc\	-um
1ryy	2a\	De-
.	2g/	-i
1ryy	4e/	u-
.	4f/	-ni-
.	4g/	-ge-
.	4g/	-ni-
1ryy	1e	-t(um)
=7	=7	=7
1ryy	2e/	et
.	2f/	ex
1ryy	4g/	pa-
.	4a\	-trem
.	2g/	na-
1ryy	1f	-tum
!!LO:LB:g=original
=8	=8	=8
1ryy	2a\	an-
.	2g\	te
1ryy	2f/	om-
.	4g/	-ni-
.	4f/	-a
1ryy	2.e/	ſae-
.	4e/	-cu-
1ryy	1d	-la
=9	=9	=9
1ryy	2f/	De-
.	4e/	-um
.	4f/	de
1ryy	2g/	De-
.	2g/	-o
1ryy	2a\	lu-
.	4a\	.
.	2g/	-men
2ryy	.	.
.	4f/	de
2ryy	4e/	lu-
.	4e/	-mi-
1ryy	1d	-ne
!!LO:LB:g=original
=10	=10	=10
1ryy	2f/	De-
.	4e/	.
.	4f/	-um
1ryy	1g	ve-
2ryy	2a\	-r(um)
4ryy	4a\	de
2ryy	2g/	De-
4ryy	4f/	-o
2ryy	2e/	ve-
1ryy	1d	-ro
!	!LO:TX:a:t=P:problem=w źródle skreślony następny takt, natomiast opisany słowami 'Verta tur' i powtórzony na następnej stronie	!
!	!LO:TX:b:Bi:t=Vertatur	!
!	!LO:TX:a:Bi:t=Verta \ntur	!
!!LO:PB:g=original
=11	=11	=11
1ryy	4a\	ge-
.	4a\	-ni-
.	4f\	-t(um)
.	4a\	non
1ryy	2g/	fac-
.	2g/	-t(um)
1ryy	4f/	con-
.	4f/	-ſub-
!	!LO:TX:a:t=P:problem=w źródle tekst zamazany	!
.	4a\	-stan-
.	4a\	-ti-
1ryy	2g/	-a-
.	2g/	-l(em)
1ryy	2f/	Pa-
.	2e/	-tri
=12	=12	=12
1ryy	2a\	per
.	2f/	q(uem)
1ryy	2g/	om-
.	4g/	-ni-
.	4f/	-a
1ryy	2e/	fa-
.	2e/	-cta
1ryy	1d	ſunt
!!LO:LB:g=original
=13	=13	=13
1ryy	2a\	Qui
.	2g#X\	p(rop)-
1ryy	4a\	-t(er)
.	4cc\	nos
.	4b\	ho-
.	4b\	-mi-
1ryy	1a	-nes
=14	=14	=14
1ryy	2b\	et
.	2cc#X\	prop-
1ryy	1dd	-ter
1ryy	2a\	noſ-
.	2g#X\	-tr(am)
!	!LO:TX:a:t=P:problem=# zgodnie z podziałem na takty	!
1ryy	2cc#\	ſa-
.	2b\	-lu-
1ryy	1a	-tem
=15	=15	=15
1ryy	2dd\	deſ-
.	2g\	-cen-
!	!LO:TX:a:t=P:problem=w źródle takt kontunuowany jest bez łamania systemu na stronie obok, reszta po łamaniu strony oznaczona kierunkiiem 'vi-de'	!
1ryy	4a\	-dit
.	4f/	de
.	2e/	cae-
1ryy	1d	-lis
=16	=16	=16
1ryy	2f/	Et
.	4e/	in-
.	4a\	-car-
1ryy	2cc\	-na-
.	2b\	-tus
1ryy	1a	eſt
=17	=17	=17
1ryy	2f/	de
.	2a\	ſpi-
1ryy	4g/	-ri-
.	4f/	-tu
.	2e/	ſan-
1ryy	1d	-cto
!!LO:LB:g=original
=18	=18	=18
1ryy	2dd\	Ex
.	2cc#X\	Ma-
1ryy	2dd\	-ri-
.	2b#X\	-a
!	!LO:TX:a:t=P:problem=# zgodnie z podziałem na takty	!
1ryy	2cc#\	vir-
!	!LO:TX:a:t=P:problem=# zgodnie z podziałem na takty	!
.	2b#\	-gi-
1ryy	1a	-ne
=19	=19	=19
1ryy	1cc	et
1ryy	1a	ho-
1ryy	1b-X	-mo
1ryy	2g/	fac-
.	2g/	-t(us)
1ryy	1f	eſt
=20	=20	=20
1ryy	4f/	Cru-
.	4g/	.
.	(>4a\	.
.	4g\)	.
1ryy	2a\	.
.	2b-X\	-ci-
!!LO:LB:g=original
=21	=21	=21
1ryy	2a\	-fi-
.	2g/	.
1ryy	1f	-xus
=22	=22	=22
1ryy	2.a\	ei
.	4g/	-ti-
1ryy	2f/	-am
.	2e/	pro
1ryy	2f/	no-
.	2d	-bis
1ryy	(<2f	ſub
.	2g/)	.
1ryy	2.a\	Pon-
.	4f\	-ti-
1ryy	1g	-o
=23	=23	=23
1ryy	(<2f/	pi-
.	2g/)	.
!!LO:PB:g=original
1ryy	2e/	-la-
.	2c/	-to
1ryy	2f/	Paſ-
.	2e/	-sus
1ryy	2g\	et
.	2a\	ſe-
1ryy	2.g/	-pul-
.	4g/	-tus
=24	=24	=24
1ryy	1f	est
=25	=25	=25
1ryy	2f/	et
.	4f/	Re-
.	4g/	-sur-
1ryy	2a\	-re-
.	2a\	-xit
!	!LO:TX:a:Bi:t=Vi	!
!!LO:LB:g=original
=26	=26	=26
!	!LO:TX:a:Bi:t=de	!
1ryy	2g/	ter-
.	4g/	-ti-
.	4g/	-a
1ryy	2f/	di-
.	2e/	-e
=27	=27	=27
1ryy	1g#X	ſe-
1ryy	2a\	-cun-
.	2cc\	-dum
1ryy	4b\	.
.	4a\	ſcrip-
.	2b\	-tu-
1ryy	1a	-ras
=28	=28	=28
1ryy	2a\	Et
.	2g/	as-
1ryy	2d/	-cen-
.	4f/	-dit
.	4g/	in
!!LO:LB:g=original
1ryy	2e/	cae-
.	2d/	-l(um)
=29	=29	=29
1ryy	1a	ſe-
1ryy	2g/	-det
.	2e/	a
1ryy	2f/	dex-
.	4g/	-te-
.	4a/	-ram
1ryy	1e	Pa-
1ryy	1d	-tris
=30	=30	=30
1ryy	2f/	Et
.	4g\	i-
.	4a\	-te-
1ryy	2b-X\	-r(um)
.	2a\	ven-
1ryy	2g/	-tu-
.	2f/	-r(us)
1ryy	1e	est
!!LO:PB:g=original
=31	=31	=31
1ryy	(>2g\	cum
.	2a\)	.
1ryy	4g/	glo-
.	4g/	-ri-
.	2e/	-a
1ryy	2f/	Ju-
.	(<4e/	-di-
.	4f/)	.
1ryy	2d/	-ca-
.	2c/	-re
=32	=32	=32
1ryy	2f/	Vi-
.	2g/	-vos
1ryy	(>2a\	et
.	2b-X\)	.
1ryy	2.g/	Mor-
.	4g/	-tu-
=33	=33	=33
1ryy	1f	-os
=34	=34	=34
1ryy	2f/	cu-
.	(>4a\	-ius
.	4g\)	.
!!LO:LB:g=original
1ryy	2a\	Re-
.	2f/	-gni
1ryy	2d/	non
.	4f/	e-
.	4e/	-rit
1ryy	1f	fi-
1ryy	1d	-nis
=35	=35	=35
1ryy	2f/	Et-
.	2g/	-in
1ryy	(>4a\	ſpi-
.	4g\	.
.	4a\	.
.	4b-X\)	.
1ryy	2.a\	-ri-
.	4g/	.
1ryy	1f	-tum
=36	=36	=36
1ryy	2a\	ſan-
.	2g/	-ctum
!!LO:LB:g=original
1ryy	4f/	D(o-
.	4e/	-mi-
.	2f/	-n)um
1ryy	2d/	et
.	2f/	vi-
1ryy	4g\	-vi-
.	4a\	-fi-
.	2f#X/	-can-
1ryy	1g	-tem
=37	=37	=37
1ryy	2f/	qui
.	2g/	ex
1ryy	2e/	Pa-
.	2c/	-tre
1ryy	2f/	fi-
.	4f/	-li-
.	4e/	-o
1ryy	2g\	q(ue)
.	2a\	pro-
!!LO:LB:g=original
1ryy	1g	-ce-
1ryy	1f	-dit
=38	=38	=38
2ryy	4d/	qui
.	2a\	cum
4ryy	.	.
1ryy	2g#X\	Pa-
.	4a\	-tre
.	4cc\	et
1ryy	2.a\	Fi-
.	4a\	-li-
1ryy	1a	-o
=39	=39	=39
1ryy	2cc\	ſi-
.	2a\	-mul
1ryy	2g\	a-
.	2a\	-do-
!!LO:PB:g=original
1ryy	(<4g/	-ra-
.	4f/	.
.	2e/)	.
1ryy	1d	-tur
=40	=40	=40
1ryy	2g/	et
!	!	!LO:MO:mod=con-
.	2a\	cum
1ryy	4e/	-glo-
.	4f/	-ri-
.	2g/	-ca-
1ryy	(<4f/	-tur
.	4g/	.
.	2a\)	.
=41	=41	=41
1ryy	4cc\	qui
.	4cc\	lo-
.	2a\	-cu-
1ryy	2g\	-tus
.	2a\	est
1ryy	4g/	per
.	4f/	Pro-
.	2e/	-phe-
1ryy	1d	-tas
!!LO:LB:g=original
=42	=42	=42
1ryy	2f/	Et
.	4f/	u-
.	4g/	-nam
1ryy	2a\	ſan-
.	2a\	-cta
1ryy	2g/	Ca-
.	4f/	-tho-
.	4f/	-li-
1ryy	1e	-cam
=43	=43	=43
1ryy	2g#X/	et
.	4a\	a-
.	4a\	-po-
1ryy	4cc\	-sto-
.	4cc\	-li-
.	4b\	-cam
.	4a\	Ecc-
1ryy	2.b\	-le-
.	4b\	-si-
1ryy	1a	-am
!!LO:LB:g=original
=44	=44	=44
1ryy	2a\	Con-
.	4a\	-fi-
.	4a\	-te-
1ryy	2g/	-or
.	2e/	u-
1ryy	4f/	-num
.	4g/	Bap-
.	2e/	-tiſ-
1ryy	1d	-ma
=45	=45	=45
1ryy	2f/	in
.	4e/	re-
.	4f/	-miſ-
1ryy	2g/	-si-
.	2a\	-o-
1ryy	4a\	-nem
.	2g/	pec-
.	4f/	-ca-
2ryy	2e/	-to-
1ryy	1d	-rum
!!LO:LB:g=original
=46	=46	=46
1ryy	1a	Et
1ryy	2f/	ex-
.	2a\	-pec-
1ryy	1g	-to
=47	=47	=47
1r	4a\	re-
.	4a\	-sur-
.	4g/	-rec-
.	4g/	-ti-
1ryy	2f/	-o-
.	2e/	-nem
2ryy	2a\	mor-
1ryy	1g	-tu-
2ryy	2f/	-o-
1ryy	1e	.
1ryy	1d	-rum
!	!LO:TX:a:Bi:t=Evitam	!
!	!LO:TX:b:Bi:t=Verta \ntur	!
!!LO:PB:g=original
=48	=48	=48
1ryy	2g\	Et
.	4dd\	Vi-
.	4cc#X\	-tam
1ryy	2dd\	ven-
.	2b\	-tu-
1ryy	1cc	-ri
=49	=49	=49
1ryy	2.a\	ſae-
.	4g#X/	-cu-
1ryy	1f	-li
=50	=50	=50
1ryy	2a\	a-
.	2cc\	.
1ryy	2b\	.
.	2a\	.
1ryy	2e/	.
.	2f/	.
1ryy	2g\	.
.	2a\	.
1ryy	2g/	.
.	2f/	.
!!LO:LB:g=original
1ryy	2a\	.
.	4g\	.
.	4f/	.
1ryy	2g\	.
.	2f/	.
1ryy	1e	-men
!LO:TX:a:t=P:problem=ozdobna kreska końcowa	!LO:TX:a:t=P:problem=ozdobna kreska końcowa	!
==	==	==
*-	*-	*-
!!!system-decoration: [(s1)]s2
!!!RDF**kern: > = above
!!!RDF**kern: < = below
!!!RDF**kern: i = editorial accidental
!!!EED: Wojciech Jakubiak-Danek
!!!EEV: 2020-12-09
!!!ENC: Tomasz Grochalski
!!!END: 2020-06-14
!!!YEC: Copyright 2022 Narodowy Instytut Fryderyka Chopina (https://polishscores.org)
!!!YEM: License CC-BY-4.0 (https://creativecommons.org/licenses/by/4.0)
